icon_installer/data/icons/scalable/actions/show-flatpak-symbolic.svg

<?xml version="1.0" encoding="UTF-8"?>
<svg height="16px" viewBox="0 0 16 16" width="16px" xmlns="http://www.w3.org/2000/svg">
    <path d="m 7.804688 0.0195312 c -0.128907 0.0273438 -0.25 0.0742188 -0.359376 0.1484378 l -6 4 c -0.277343 0.183593 -0.445312 0.496093 -0.445312 0.832031 v 6 c 0 0.335938 0.167969 0.648438 0.445312 0.832031 l 6 4 c 0.335938 0.222657 0.773438 0.222657 1.109376 0 l 6 -4 c 0.277343 -0.183593 0.445312 -0.496093 0.445312 -0.832031 v -6 c 0 -0.335938 -0.167969 -0.648438 -0.445312 -0.832031 l -6 -4 c -0.21875 -0.1484378 -0.488282 -0.199219 -0.75 -0.1484378 z m 0.195312 2.1796878 v 6.800781 l 5 -3.332031 v 4.796875 l -5 3.335937 v -4.800781 l -5 -3.332031 v -0.132813 z m 0 0" fill="#2e3436"/>
</svg>

<svg xmlns="http://www.w3.org/2000/svg" width="16" height="16"><path fill="#2e3436" d="M7.805.02a.998.998 0 0 0-.36.148l-6 4A.998.998 0 0 0 1 5v6c0 .336.168.648.445.832l6 4c.336.223.774.223 1.11 0l6-4A.998.998 0 0 0 15 11V5a.998.998 0 0 0-.445-.832l-6-4a.994.994 0 0 0-.75-.148zM8 2.2V9l5-3.332v4.797L8 13.8V9L3 5.668v-.133zm0 0"/></svg>
